modules/stroke-7/icons/credit.svg

<?xml version="1.0" encoding="utf-8"?>
<!-- Generated by IcoMoon.io -->
<!DOCTYPE svg PUBLIC "-//W3C//DTD SVG 1.1//EN" "http://www.w3.org/Graphics/SVG/1.1/DTD/svg11.dtd">
<svg version="1.1" xmlns="http://www.w3.org/2000/svg" xmlns:xlink="http://www.w3.org/1999/xlink" width="32" height="32" viewBox="0 0 32 32">
<g id="icomoon-ignore">
</g>
<path d="M28.795 6.404h-25.59c-0.883 0-1.599 0.716-1.599 1.599v15.994c0 0.884 0.716 1.599 1.599 1.599h25.59c0.883 0 1.599-0.715 1.599-1.599v-15.994c0-0.883-0.716-1.599-1.599-1.599zM2.672 10.669h26.656v2.133h-26.656v-2.133zM29.328 23.997c0 0.294-0.239 0.533-0.533 0.533h-25.59c-0.294 0-0.533-0.239-0.533-0.533v-10.129h26.656v10.129zM2.672 9.602v-1.599c0-0.294 0.239-0.533 0.533-0.533h25.59c0.294 0 0.533 0.239 0.533 0.533v1.599h-26.656z" fill="#000000"></path>
<path d="M4.804 21.331h10.662v1.066h-10.662v-1.066z" fill="#000000"></path>
<path d="M4.804 18.133h6.398v1.066h-6.397v-1.066z" fill="#000000"></path>
<path d="M23.981 22.398h2.165c0.579 0 1.050-0.462 1.050-1.034v-0.064c0-0.571-0.47-1.035-1.050-1.035h-2.165c-0.58 0-1.051 0.463-1.051 1.035v0.064c0 0.572 0.47 1.034 1.051 1.034z" fill="#000000"></path>
</svg>

<svg xmlns="http://www.w3.org/2000/svg" width="32" height="32"><path d="M28.795 6.404H3.205a1.6 1.6 0 0 0-1.599 1.599v15.994c0 .884.716 1.599 1.599 1.599h25.59c.883 0 1.599-.715 1.599-1.599V8.003a1.6 1.6 0 0 0-1.599-1.599zM2.672 10.669h26.656v2.133H2.672v-2.133zm26.656 13.328a.533.533 0 0 1-.533.533H3.205a.533.533 0 0 1-.533-.533V13.868h26.656v10.129zM2.672 9.602V8.003c0-.294.239-.533.533-.533h25.59c.294 0 .533.239.533.533v1.599H2.672z"/><path d="M4.804 21.331h10.662v1.066H4.804v-1.066zM4.804 18.133h6.398v1.066H4.805v-1.066zM23.981 22.398h2.165c.579 0 1.05-.462 1.05-1.034V21.3c0-.571-.47-1.035-1.05-1.035h-2.165c-.58 0-1.051.463-1.051 1.035v.064c0 .572.47 1.034 1.051 1.034z"/></svg>
